icons/lines/box.svg

<svg xmlns="http://www.w3.org/2000/svg" width="24" height="24" viewBox="0 0 24 24" fill="none" stroke="currentColor" stroke-width="2" stroke-linecap="round" stroke-linejoin="round" >
  <path d="M3.16992 7.43994L11.9999 12.5499L20.7699 7.46991"/>
  <path d="M12 21.6099V12.5399"/>
  <path d="M9.93011 2.48L4.59012 5.45003C3.38012 6.12003 2.39014 7.80001 2.39014 9.18001V14.83C2.39014 16.21 3.38012 17.89 4.59012 18.56L9.93011 21.53C11.0701 22.16 12.9401 22.16 14.0801 21.53L19.4201 18.56C20.6301 17.89 21.6201 16.21 21.6201 14.83V9.18001C21.6201 7.80001 20.6301 6.12003 19.4201 5.45003L14.0801 2.48C12.9301 1.84 11.0701 1.84 9.93011 2.48Z"/>
  <path d="M16.9998 13.24V9.58002L7.50977 4.09998"/>
  </svg>

<svg xmlns="http://www.w3.org/2000/svg" width="24" height="24" viewBox="0 0 24 24" fill="none" stroke="currentColor" stroke-width="2" stroke-linecap="round" stroke-linejoin="round">
  <path d="M12 21.61v-9.07" />
  <path d="M17 13.24V9.58L7.51 4.1" />
  <path d="M3.17 7.44 12 12.55l8.77-5.08" />
  <path d="M4.59 5.45c-1.21.67-2.2 2.35-2.2 3.73v5.65c0 1.38.99 3.06 2.2 3.73l5.34 2.97c1.14.63 3.01.63 4.15 0l5.34-2.97c1.21-.67 2.2-2.35 2.2-3.73V9.18c0-1.38-.99-3.06-2.2-3.73l-5.34-2.97c-1.15-.64-3.01-.64-4.15 0z" />
</svg>
